X:45
T:Rakish Paddy
R:reel
H:The tune comes from the Scottish tune "Cabar Feidh" (The Deer's Antlers).
H:It is related to "The Copperplate", #308.
H:This is the standard version with variations.
H:See also #54 (4-part version), #647 (Donegal version)
Z:id:hn-reel-53
M:C|
K:Dmix
c3B c2AB|cBAG EG~G2|Add^c defe|dcAG FGAB|
c3B c2AB|cBAG EFGE|DEFG ABcA|1 dcAG FGAB:|2 dcAG FDD2||
|:eggg aggg|eggg edcd|eaaa baaa|eaaa edcd|
eggg aggg|fgfe defg|afge fdec|dcAG FGA2:|
